packages/icons/svg/Outline/compass.svg

<svg fill="none" height="24" viewBox="0 0 24 24" width="24" xmlns="http://www.w3.org/2000/svg"><path clip-rule="evenodd" d="m10.7969 13.2128.714-1.742 1.692-.684-.714 1.742zm4.886-4.89487c-.274-.29-.704-.402-1.099-.246l-4.213 1.702c-.25.101-.44902.29797-.55102.54797l-1.745 4.258c-.148.361-.061.751.178 1.028.008.01.014.023.023.034.016.017.035.031.053.048.188.193.443.31.713.31.125 0 .252-.023.374-.072l4.21302-1.701c.25-.102.449-.299.551-.549l1.745-4.25797c.162-.394.05-.826-.242-1.102zm-3.6829 11.68217c-4.41098 0-7.99998-3.589-7.99998-8 0-4.41104 3.589-8.00003 7.99998-8.00003 4.411 0 8 3.58899 8 8.00003 0 4.411-3.589 8-8 8zm0-18.0001c-5.514 0-10 4.486-10 10s4.486 10 10 10 10-4.486 10-10-4.486-10-10-10z" fill="#6b7280" fill-rule="evenodd"/></svg>

<svg width="24" height="24" viewBox="0 0 24 24" fill="none" xmlns="http://www.w3.org/2000/svg">
<g id="Icon/Outline/compass">
<path id="Mask" fill-rule="evenodd" clip-rule="evenodd" d="M10.7969 13.2129L11.5109 11.4709L13.2029 10.7869L12.4889 12.5289L10.7969 13.2129ZM15.6829 8.3179C15.4089 8.0279 14.9789 7.9159 14.5839 8.0719L10.3709 9.7739C10.1209 9.8749 9.9219 10.0719 9.8199 10.3219L8.0749 14.5799C7.9269 14.9409 8.0139 15.3309 8.2529 15.6079C8.2609 15.6179 8.2669 15.6309 8.2759 15.6419C8.2919 15.6589 8.3109 15.6729 8.3289 15.6899C8.5169 15.8829 8.7719 15.9999 9.0419 15.9999C9.1669 15.9999 9.2939 15.9769 9.4159 15.9279L13.6289 14.2269C13.8789 14.1249 14.0779 13.9279 14.1799 13.6779L15.9249 9.4199C16.0869 9.0259 15.9749 8.5939 15.6829 8.3179ZM12 20C7.589 20 4 16.411 4 12C4 7.589 7.589 4 12 4C16.411 4 20 7.589 20 12C20 16.411 16.411 20 12 20ZM12 2C6.486 2 2 6.486 2 12C2 17.514 6.486 22 12 22C17.514 22 22 17.514 22 12C22 6.486 17.514 2 12 2Z" fill="#000000"/>
</g>
</svg>
